X:96
T:Reels simple chords 102
M:3/4
L:1/8
K:Am
[cA,CE]d/c/ Bc/B/ [AF,A,C]B/A/ | G>A [B/G,/B,/D/]c/d ed | [g2G,2B,2D2]>d2 [eA,CE]a | ge [dG,B,D]B GA/B/ | [cA,CE]e dB [A2A,2C2E2] |
A2 [B/G,/B,/D/]c/d ed | [g2G,2B,2D2]>d2 [eA,CE]a | ge [dG,B,D]B GA/B/ | [cA,CE]e dB [A2A,2C2E2] |
A2 [eA,CE]a ag/e/ | [dG,B,D]g gd [eA,CE]a | ab [gG,B,D]>^f gd | [eA,CE]a ge [dG,B,D]B |
GA/B/ [cA,CE]e dB | [A2A,2C2E2] A2 [eA,CE]a | ag/e/ [dG,B,D]g gd | [eA,CE]a ab [gG,B,D]>^f |
gd [eA,CE]a ge | [dG,B,D]B GA/B/ [cA,CE]e | dB [A2A,2C2E2] A2 |


